X:86
T: Waechterlied
N: A0101A
O: Europa, Mitteleuropa, Deutschland
N: Reutterliedlein 1535 No. 13.
R: Romanze, Ballade, Lied
M: 4/2
L: 1/4
K: F
c2 | A4c2F4C2 | F2G2A4
z2G2A2B2 | c4B2A2 | G4F4z2
c2 | A4c2F4C2 | F2G2A4
z2G2A2B2 | c4B2A2 | G4F4
z2D2E2F2 | G4z2E2F2G2 | A4z4
F4 | c4B2A4F2 | c4B2A4GF
G3ABGc4BA | G4F8

